X: 30741
T: GRAND CANAL HORNPIPE
C: English Composition.
%R: hornpipe, reel
B: Elias Howe "The Musician's Companion" Part 3 1844 p.74 #1
S: http://imslp.org/wiki/The_Musician's_Companion_(Howe,_Elias)
Z: 2015 John Chambers <jc:trillian.mit.edu>
M: C|
L: 1/8
K: D
% - - - - - - - - - - - - - - - - - - - - - - - - -
d>e |\
f>dA>d f>dA>d | dfeg f3e |\
(dc).B.A GE.e.d | c2A2A2 d>e |\
fdAd fdAd | dfad' b3g |\
gfed ceag | f2d2d2 :|
|: a>g |\
f>ad>f A2d>c | BAGF E3d |\
edef gfed | c2A2A2 zA |\
(BG).B.d (cA).c.e | dfad' b3g |\
gfed ceag | f2d2d2 :|
% - - - - - - - - - - - - - - - - - - - - - - - - -
